X: 5371
T: Bucks Of Oconomowoc, The
R: reel
M: 4/4
K: Dmajor
dABA FABA|dABA FEE2|dABA FABA|EGFE EDD2|
dABA FABA|dABA gfed|dABA dABA|ABcf edd2||
FAGB ABcd|FAGE FDE2|FAGB ABcd|EGFE D2D2|
FAGB ABcd|FAGE FDE2|FAGB ABcd|ABcf edd2||
aded aded|agfa g2 g2|aded aded|gfed cABc|
aded aded|agfa g2 fg|agfa gfeg|ABcf edd2||
faaf eaae|dBdg Bdgd|faaf eaae|gfed cA (3Bcd|
faaf eaae|agfa g2 fe|dBdg dAdf|ABcf edd2||
fdAf dAfd|AfdA g2g2|fdAf dAfd|AfdA e2e2|
fdAf dAfd|AfdA g2g2|agfa gfeg|ABcf edd2||

